src/images/bulb/stars.svg

<svg height="1000" viewBox="0 0 1000 1000" width="1000" xmlns="http://www.w3.org/2000/svg"><g fill="none" fill-rule="evenodd"><g fill="#fefefe"><path d="m906.049124 111c0 4.195439 1.685601 8.230748 2.950876 12-3.769252-1.265275-7.804561-2.950876-12-2.950876s-8.230748 1.685601-12 2.950876c1.265275-3.769252 2.950876-7.804561 2.950876-12s-1.685601-8.230748-2.950876-12c3.769252 1.265275 7.804561 2.950876 12 2.950876s8.230748-1.685601 12-2.950876c-1.265275 3.769252-2.950876 7.804561-2.950876 12z" transform="matrix(.70710678 .70710678 -.70710678 .70710678 341.21407 -601.763635)"/><path d="m208.049124 434c0 4.195439 1.685601 8.230748 2.950876 12-3.769252-1.265275-7.804561-2.950876-12-2.950876s-8.230748 1.685601-12 2.950876c1.265275-3.769252 2.950876-7.804561 2.950876-12s-1.685601-8.230748-2.950876-12c3.769252 1.265275 7.804561 2.950876 12 2.950876s8.230748-1.685601 12-2.950876c-1.265275 3.769252-2.950876 7.804561-2.950876 12z" transform="matrix(.70710678 .70710678 -.70710678 .70710678 365.170094 -13.598592)"/><path d="m782.049124 661c0 4.195439 1.685601 8.230748 2.950876 12-3.769252-1.265275-7.804561-2.950876-12-2.950876s-8.230748 1.685601-12 2.950876c1.265275-3.769252 2.950876-7.804561 2.950876-12s-1.685601-8.230748-2.950876-12c3.769252 1.265275 7.804561 2.950876 12 2.950876s8.230748-1.685601 12-2.950876c-1.265275 3.769252-2.950876 7.804561-2.950876 12z" transform="matrix(.70710678 .70710678 -.70710678 .70710678 693.804041 -352.991124)"/></g><g fill="#c3d7f9"><circle cx="417" cy="231" r="7"/><circle cx="61" cy="949" r="7"/><circle cx="548" cy="739" r="7"/></g></g></svg>

<?xml version="1.0" encoding="UTF-8"?>
<svg width="1000px" height="1000px" viewBox="0 0 1000 1000" version="1.1" xmlns="http://www.w3.org/2000/svg" xmlns:xlink="http://www.w3.org/1999/xlink">
    <!-- Generator: Sketch 55.1 (78136) - https://sketchapp.com -->
    <title>Artboard Copy 6</title>
    <desc>Created with Sketch.</desc>
    <g id="Artboard-Copy-6" stroke="none" stroke-width="1" fill="none" fill-rule="evenodd">
        <path d="M906.049124,111 C906.049124,115.195439 907.734725,119.230748 909,123 C905.230748,121.734725 901.195439,120.049124 897,120.049124 C892.804561,120.049124 888.769252,121.734725 885,123 C886.265275,119.230748 887.950876,115.195439 887.950876,111 C887.950876,106.804561 886.265275,102.769252 885,99 C888.769252,100.265275 892.804561,101.950876 897,101.950876 C901.195439,101.950876 905.230748,100.265275 909,99 C907.734725,102.769252 906.049124,106.804561 906.049124,111 Z" id="Path-Copy" fill="#FEFEFE" transform="translate(897.000000, 111.000000) rotate(-315.000000) translate(-897.000000, -111.000000) "></path>
        <path d="M208.049124,434 C208.049124,438.195439 209.734725,442.230748 211,446 C207.230748,444.734725 203.195439,443.049124 199,443.049124 C194.804561,443.049124 190.769252,444.734725 187,446 C188.265275,442.230748 189.950876,438.195439 189.950876,434 C189.950876,429.804561 188.265275,425.769252 187,422 C190.769252,423.265275 194.804561,424.950876 199,424.950876 C203.195439,424.950876 207.230748,423.265275 211,422 C209.734725,425.769252 208.049124,429.804561 208.049124,434 Z" id="Path-Copy-2" fill="#FEFEFE" transform="translate(199.000000, 434.000000) rotate(-315.000000) translate(-199.000000, -434.000000) "></path>
        <path d="M782.049124,661 C782.049124,665.195439 783.734725,669.230748 785,673 C781.230748,671.734725 777.195439,670.049124 773,670.049124 C768.804561,670.049124 764.769252,671.734725 761,673 C762.265275,669.230748 763.950876,665.195439 763.950876,661 C763.950876,656.804561 762.265275,652.769252 761,649 C764.769252,650.265275 768.804561,651.950876 773,651.950876 C777.195439,651.950876 781.230748,650.265275 785,649 C783.734725,652.769252 782.049124,656.804561 782.049124,661 Z" id="Path-Copy-3" fill="#FEFEFE" transform="translate(773.000000, 661.000000) rotate(-315.000000) translate(-773.000000, -661.000000) "></path>
        <circle id="Oval" fill="#C3D7F9" cx="417" cy="231" r="7"></circle>
        <circle id="Oval-Copy-5" fill="#C3D7F9" cx="61" cy="949" r="7"></circle>
        <circle id="Oval-Copy" fill="#C3D7F9" cx="548" cy="739" r="7"></circle>
    </g>
</svg>
